src/assets/images/wallacoins-tutorial-3.svg

<?xml version="1.0" encoding="UTF-8"?>
<svg width="300px" height="200px" viewBox="0 0 300 200" version="1.1" xmlns="http://www.w3.org/2000/svg" xmlns:xlink="http://www.w3.org/1999/xlink">
    <!-- Generator: Sketch 51.2 (57519) - http://www.bohemiancoding.com/sketch -->
    <title>Group 4</title>
    <desc>Created with Sketch.</desc>
    <defs></defs>
    <g id="onboarding" stroke="none" stroke-width="1" fill="none" fill-rule="evenodd">
        <g id="onboarding_3" transform="translate(-570.000000, -163.000000)">
            <g id="Group-4" transform="translate(570.000000, 163.000000)">
                <rect id="Rectangle-6" fill-opacity="0" fill="#FFFFFF" fill-rule="nonzero" x="0" y="0" width="300" height="200"></rect>
                <circle id="Oval" fill="#C1F5E6" opacity="0.5" cx="151" cy="100" r="75"></circle>
                <g id="Group-9" transform="translate(40.000000, 50.000000)" fill-rule="nonzero">
                    <rect id="Rectangle-2" stroke="#13C1AC" stroke-width="3" fill="#FFFFFF" transform="translate(49.988239, 54.862376) rotate(-33.000000) translate(-49.988239, -54.862376) " x="22.0476379" y="10.0940987" width="55.8812018" height="89.5365537" rx="5"></rect>
                    <g id="Group-14" transform="translate(34.925703, 29.937252) rotate(-33.000000) translate(-34.925703, -29.937252) translate(16.425703, 24.937252)" stroke="#C1F5E6" stroke-linecap="round" stroke-width="3">
                        <g id="Group-12" transform="translate(0.000000, 0.000000)">
                            <path d="M0.371499497,9.72070939 C0.623692859,7.77121402 1.50904751,6.45445378 3.02756346,5.77042868 C5.30533739,4.74439103 6.4600471,5.95661482 8.85520105,5.39266514 C11.250355,4.82871546 11.8258133,0.720709387 18.3714995,0.720709387" id="Path-16"></path>
                            <path d="M18.3637175,9.67151505 C18.6159109,7.72201968 19.5012655,6.40525945 21.0197815,5.72123434 C23.2975554,4.69519669 24.4522651,5.90742049 26.8474191,5.34347081 C29.242573,4.77952112 30.2175369,0.718206946 36.7632231,0.718206946" id="Path-16" transform="translate(27.563470, 5.194861) scale(-1, 1) translate(-27.563470, -5.194861) "></path>
                        </g>
                    </g>
                    <rect id="Rectangle-2" stroke="#13C1AC" stroke-width="3" fill="#FFFFFF" transform="translate(70.358360, 64.074783) rotate(-23.000000) translate(-70.358360, -64.074783) " x="42.4177594" y="19.3065066" width="55.8812018" height="89.5365537" rx="5"></rect>
                    <circle id="Oval-2" stroke="#C1F5E6" stroke-width="3" fill="#FFFFFF" transform="translate(70.638287, 64.167561) rotate(-20.000000) translate(-70.638287, -64.167561) " cx="70.638287" cy="64.167561" r="16.5"></circle>
                    <path d="M87.4631348,30.2822266 L97.25,29.887207 C101.140299,25.7584635 105.349691,24.6463216 109.878174,26.5507812 C116.670898,29.4074707 133.166016,42.265625 134.973389,48.8251953 C136.780762,55.3847656 137.189209,72.0290527 127.557129,76.4462891 C121.135742,79.3911133 115.242757,81.0123698 109.878174,81.3100586 L108.791748,79.1594238 L98.0397949,53.9912109 C93.9260254,61.417806 91.1869303,65.7539876 89.8225098,66.9997559 C87.7758789,68.8684082 79.5344238,79.0947266 72.2651367,75.1870117 C64.9958496,71.2792969 68.1689453,66.2519531 73.9382324,57.5385742 C77.7844238,51.7296549 83.0791829,44.924235 89.8225098,37.1223145 L87.4631348,30.2822266 Z" id="Path-14" fill="#FFFFFF"></path>
                    <rect id="Rectangle-5" fill="#FFFFFF" x="124" y="38" width="64" height="36"></rect>
                    <path d="M100.298828,52.5429687 C90.23496,68.8935151 81.7502439,76.5985412 74.8446795,75.6580471 C64.4863331,74.2473059 67.039394,67.5666719 74.8446795,57.3802511 C82.6499651,47.1938302 88.65309,38.1599223 94.3429433,32.0704949 C100.032797,25.9810674 106.833711,24.3467551 113.786164,27.7410961 C120.738617,31.1354371 131.136301,41.1423105 133.657227,48.8381348 C136.178152,56.5339591 136.421143,64.3352051 131.705566,71.2629395 C126.98999,78.1906738 122.076172,80.0180664 117.140381,81.3186035 C113.849854,82.1856283 111.119667,81.9564196 108.949822,80.6309776" id="Path-12" stroke="#13C1AC" stroke-width="3" stroke-linecap="round"></path>
                    <path d="M95.5,29.5 L87.5,29.5" id="Line-3" stroke="#13C1AC" stroke-width="3" stroke-linecap="square"></path>
                    <path d="M98.1987305,60.4865723 C101.699544,62.6633301 105.674398,63.388916 110.123291,62.6633301 C114.572184,61.9377441 117.87443,59.7111003 120.030029,55.9833984" id="Path-13" stroke="#13C1AC" stroke-width="3" stroke-linecap="round" transform="translate(109.114380, 59.459412) rotate(15.000000) translate(-109.114380, -59.459412) "></path>
                    <path d="M126.869873,38.25 L184.006836,38.25" id="Line-4" stroke="#13C1AC" stroke-width="3" stroke-linecap="round"></path>
                    <path d="M128.5,75.25 L178.775146,75.25" id="Line-4" stroke="#13C1AC" stroke-width="3" stroke-linecap="round"></path>
                    <g id="Group-14" transform="translate(59.959551, 36.796050) rotate(-23.000000) translate(-59.959551, -36.796050) translate(41.459551, 31.796050)" stroke="#C1F5E6" stroke-linecap="round" stroke-width="3">
                        <g id="Group-12" transform="translate(0.000000, -0.000000)">
                            <path d="M0.475978375,9.78430271 C0.728171737,7.83480734 1.61352639,6.51804711 3.13204234,5.834022 C5.40981627,4.80798435 6.56452598,6.02020815 8.95967993,5.45625847 C11.3548339,4.89230879 11.9302922,0.784302712 18.4759784,0.784302712" id="Path-16"></path>
                            <path d="M18.4681964,9.73510838 C18.7203898,7.78561301 19.6057444,6.46885277 21.1242604,5.78482767 C23.4020343,4.75879002 24.556744,5.97101381 26.9518979,5.40706413 C29.3470519,4.84311445 30.3220158,0.78180027 36.867702,0.78180027" id="Path-16" transform="translate(27.667949, 5.258454) scale(-1, 1) translate(-27.667949, -5.258454) "></path>
                        </g>
                    </g>
                    <g id="Group-14" transform="translate(80.921554, 91.138600) rotate(-201.000000) translate(-80.921554, -91.138600) translate(62.421554, 86.138600)" stroke="#C1F5E6" stroke-linecap="round" stroke-width="3">
                        <g id="Group-12" transform="translate(-0.000000, -0.000000)">
                            <path d="M0.068235504,9.35851126 C0.320428866,7.40901589 1.20578352,6.09225566 2.72429947,5.40823056 C5.00207339,4.3821929 6.1567831,5.5944167 8.55193706,5.03046702 C10.947091,4.46651734 11.5225493,0.358511262 18.0682355,0.358511262" id="Path-16"></path>
                            <path d="M18.0604535,9.30931693 C18.3126469,7.35982156 19.1980015,6.04306132 20.7165175,5.35903622 C22.9942914,4.33299857 24.1490011,5.54522236 26.5441551,4.98127268 C28.939309,4.417323 29.9142729,0.356008821 36.4599591,0.356008821" id="Path-16" transform="translate(27.260206, 4.832663) scale(-1, 1) translate(-27.260206, -4.832663) "></path>
                        </g>
                    </g>
                </g>
            </g>
        </g>
    </g>
</svg>

<svg width="300" height="200" viewBox="0 0 300 200" xmlns="http://www.w3.org/2000/svg"><g id="onboarding" fill="none" fill-rule="evenodd"><g id="onboarding_3" transform="translate(-570 -163)"><g id="Group-4" transform="translate(570 163)"><path id="Rectangle-6" fill-opacity="0" fill="#FFF" fill-rule="nonzero" d="M0 0h300v200H0z"/><circle id="Oval" fill="#C1F5E6" opacity=".5" cx="151" cy="100" r="75"/><g id="Group-9" transform="translate(40 50)" fill-rule="nonzero"><rect id="Rectangle-2" stroke="#13C1AC" stroke-width="3" fill="#FFF" transform="rotate(-33 49.988 54.862)" x="22.048" y="10.094" width="55.881" height="89.537" rx="5"/><g id="Group-14" transform="rotate(-33 68.806 -10.257)" stroke="#C1F5E6" stroke-linecap="round" stroke-width="3"><g id="Group-12"><path d="M.371 9.72C.624 7.772 1.51 6.455 3.028 5.77c2.277-1.026 3.432.187 5.827-.377C11.25 4.829 11.825.72 18.371.72" id="Path-16"/><path d="M18.364 9.672c.252-1.95 1.137-3.267 2.656-3.95 2.278-1.027 3.432.185 5.827-.379 2.396-.563 3.37-4.625 9.916-4.625" id="Path-16" transform="matrix(-1 0 0 1 55.127 0)"/></g></g><rect id="Rectangle-2" stroke="#13C1AC" stroke-width="3" fill="#FFF" transform="rotate(-23 70.358 64.075)" x="42.418" y="19.307" width="55.881" height="89.537" rx="5"/><circle id="Oval-2" stroke="#C1F5E6" stroke-width="3" fill="#FFF" transform="rotate(-20 70.638 64.168)" cx="70.638" cy="64.168" r="16.5"/><path d="M87.463 30.282l9.787-.395c3.89-4.129 8.1-5.24 12.628-3.336 6.793 2.856 23.288 15.715 25.095 22.274 1.808 6.56 2.216 23.204-7.416 27.621-6.421 2.945-12.314 4.566-17.679 4.864l-1.086-2.15L98.04 53.99C93.926 61.418 91.187 65.754 89.823 67c-2.047 1.868-10.289 12.095-17.558 8.187-7.27-3.908-4.096-8.935 1.673-17.648 3.846-5.81 9.141-12.615 15.885-20.417l-2.36-6.84z" id="Path-14" fill="#FFF"/><path id="Rectangle-5" fill="#FFF" d="M124 38h64v36h-64z"/><path d="M100.299 52.543C90.235 68.893 81.75 76.599 74.845 75.658c-10.359-1.41-7.806-8.091 0-18.278 7.805-10.186 13.808-19.22 19.498-25.31 5.69-6.089 12.49-7.723 19.443-4.329 6.953 3.394 17.35 13.401 19.871 21.097 2.521 7.696 2.764 15.497-1.951 22.425-4.716 6.928-9.63 8.755-14.566 10.056-3.29.867-6.02.637-8.19-.688" id="Path-12" stroke="#13C1AC" stroke-width="3" stroke-linecap="round"/><path d="M95.5 29.5h-8" id="Line-3" stroke="#13C1AC" stroke-width="3" stroke-linecap="square"/><path d="M98.305 57.626c2.818 3.01 6.47 4.739 10.955 5.19 4.485.45 8.25-.846 11.298-3.889" id="Path-13" stroke="#13C1AC" stroke-width="3" stroke-linecap="round"/><path d="M126.87 38.25h57.137M128.5 75.25h50.275" id="Line-4" stroke="#13C1AC" stroke-width="3" stroke-linecap="round"/><g id="Group-14" transform="rotate(-23 117.371 -80.992)" stroke="#C1F5E6" stroke-linecap="round" stroke-width="3"><g id="Group-12"><path d="M.476 9.784c.252-1.95 1.138-3.266 2.656-3.95 2.278-1.026 3.433.186 5.828-.378 2.395-.564 2.97-4.672 9.516-4.672" id="Path-16"/><path d="M18.468 9.735c.252-1.95 1.138-3.266 2.656-3.95 2.278-1.026 3.433.186 5.828-.378 2.395-.564 3.37-4.625 9.916-4.625" id="Path-16" transform="matrix(-1 0 0 1 55.336 0)"/></g></g><g id="Group-14" transform="rotate(159 41.728 53.854)" stroke="#C1F5E6" stroke-linecap="round" stroke-width="3"><g id="Group-12"><path d="M.068 9.359c.252-1.95 1.138-3.267 2.656-3.95 2.278-1.027 3.433.185 5.828-.379C10.947 4.467 11.522.36 18.068.36" id="Path-16"/><path d="M18.06 9.31c.253-1.95 1.138-3.267 2.657-3.951 2.277-1.026 3.432.186 5.827-.378C28.94 4.417 29.914.356 36.46.356" id="Path-16" transform="matrix(-1 0 0 1 54.52 0)"/></g></g></g></g></g></g></svg>
